X:126
T:The Blue Angels Jig                                                                               
M:6/8                                                                                               
L:1/8                                                                                               
K:Bm                                                                                                
e|f2 d dcd|Bgg Aff|Gee Fdd|cBA bag|\                                                                
f2 d dcd Bgg Aff|Gee Fdd|cBc d2 e :|                                                                
fdB Bcd|fdB Bcd|cdc cdc|fgf edc|\                                                                   
fdB Bcd|fdB Bcd|fgf edc|fdB B2 e :|                                                                 
P:Variation to B Part                                                                               
fdB Bcd|fdB Bcd|c_BF FBc|fgf edc |\                                                                 
fdB Bcd|fdB Bcd|fgf edc|fdB B2 e :|
